static/img/gitbook-import/assets/wasabi-wallet-logo.svg

<svg height="75" viewBox="0 0 162 49" width="250" xmlns="http://www.w3.org/2000/svg" xmlns:xlink="http://www.w3.org/1999/xlink"><linearGradient id="a" x1="49.998891%" x2="49.998891%" y1="85.214974%" y2="-21.428571%"><stop offset="0" stop-color="#8bc53f"/><stop offset=".17" stop-color="#91bf3e"/><stop offset=".4" stop-color="#a2af3c"/><stop offset=".66" stop-color="#bd9538"/><stop offset=".95" stop-color="#e47133"/><stop offset=".97" stop-color="#e76e33"/></linearGradient><g fill="none"><g fill="#74b64a"><path d="m70 11h3.3580247l2.6111111 9.8761526 3.0493827-9.8761526h2.9814815l3.0283951 9.8761526 2.6111111-9.8761526h3.3604938l-3.8839506 14h-3.3135803l-3.291358-9.8749683-3.3135802 9.8749683h-3.3135803z"/><path d="m97.9868648 11h4.0238512l4.989284 13.9952643h-3.314898l-1.010197-2.9266808h-5.4187695l-.9896301 2.9314165h-3.2665054zm3.9355342 8.5491755-1.9574837-6.1469768-1.9562738 6.1469768z"/><path d="m113.626981 24.866012c-.816106-.0665798-1.627312-.1782362-2.429394-.3343875v-2.1775965c1.30976.1118508 2.966636.1673879 4.970626.1666111.898855 0 1.576103-.1021415 2.031744-.3064247.45564-.2042832.683875-.5674101.684703-1.0893808v-.5021638c0-.4085664-.143319-.7219818-.429959-.9402464-.286639-.2182645-.695473-.32662-1.226502-.3250665h-1.391775c-1.618767 0-2.829943-.2978806-3.633527-.8936419-.803585-.5957612-1.204549-1.5697958-1.202892-2.9221038v-.6699401c0-2.5803373 1.759602-3.8708944 5.278805-3.8716711.856233.0017261 1.711691.0484037 2.562357.1398136.883115.093209 1.678001.2019529 2.384658.3262317v2.1775965c-2.017246-.1118509-3.541157-.1677763-4.571733-.1677763-.838379 0-1.471719.1083555-1.900022.3250666-.428302.216711-.641625.6171216-.639968 1.2012317v.3716711c0 .4714825.158232.8159676.474695 1.0334554s.798614.3258433 1.446452.3250666h1.615453c1.412487 0 2.489456.3258433 3.230907.9775299.741452.6516867 1.114249 1.506103 1.118391 2.563249v.781791c0 1.0416111-.228649 1.8509764-.685946 2.4280958-.47746.5903072-1.154996 1.0106618-1.921147 1.1919108-.828438.2167111-1.851973.3250666-3.070604.3250666-.839208-.0023302-1.737648-.0469929-2.695322-.133988z"/><path d="m129.986434 11h4.024713l4.988853 13.9952643h-3.314612l-1.011319-2.9266808h-5.418301l-.989545 2.9314165h-3.266223zm3.935194 8.5491755-1.956105-6.1469768-1.957314 6.1469768z"/><path d="m143 11h6.639144c3.208557 0 4.812835 1.2237072 4.812835 3.6711216 0 .8321209-.205348 1.5098968-.616043 2.0333277-.420017.5296704-1.037681.8971072-1.733904 1.0314668.798237.1518324 1.522294.5367467 2.065027 1.0977838.554438.5676422.832085 1.3366041.832941 2.3068854 0 1.3879209-.422246 2.3779395-1.266738 2.9700559s-2.110374.8885693-3.797647.8893588h-6.930481zm6.660963 5.7695821c.440043.0203059.865838-.1468894 1.15508-.4535611.281497-.3031636.422246-.7065923.422246-1.2102859 0-.552642-.148449-.9564654-.445348-1.2114702-.324053-.2608631-.744753-.3961979-1.174331-.3777702h-3.241926v3.2530874zm.183529 5.7139232c1.291979 0 1.937968-.6118536 1.937968-1.8355608 0-.5297468-.178396-.9489652-.535187-1.2576552-.383679-.3182555-.887349-.4849342-1.402781-.4642193h-3.465241v3.5526984z"/><path d="m159 11h3v14h-3z"/></g><path d="m91 30h1.759044l1.3670831 4.935 1.5977186-4.935h1.5630636l1.5869636 4.935 1.3670831-4.935h1.759044l-2.0315046 7h-1.738729l-1.7243889-4.935-1.7351439 4.935h-1.735144z" fill="#f6921e"/><path d="m105.494253 30h2.011494l2.494253 7h-1.652778l-.506226-1.4645313h-2.712165l-.495051 1.4645313h-1.63378zm1.966794 4.2732812-.977809-3.0723437-.978928 3.0723437z" fill="#f6921e"/><path d="m113.479232 36.6125704c-.32026-.2582865-.480003-.680738-.479229-1.2673546l-.000003-5.3452158h1.651197v5.1175735c0 .4107776.24561.6158015.73683.6150719h2.611973v1.2673546h-3.048269c-.661406 0-1.152239-.1291432-1.472499-.3874296z" fill="#f6921e"/><path d="m120.48039 36.6125704c-.32026-.2582865-.48039-.680738-.48039-1.2673546v-5.3452158h1.652356v5.1175735c0 .4107776.245223.6158015.735669.6150719h2.611975v1.2673546h-3.047111c-.661406 0-1.1534-.1291432-1.472499-.3874296z" fill="#f6921e"/><path d="m128.661568 36.7011121c-.441045-.2000402-.661568-.6102675-.661568-1.2306819v-3.8812141c0-.5638813.202252-.9697599.606756-1.2176358.429399-.2535623.942567-.3834555 1.464627-.3707266 1.250053 0 2.557893.0405879 3.923518.1217636v1.1654514h-3.384321c-.531124 0-.796686.1909804-.796686.5729411v1.0056367l3.592097.0750151v1.1002209l-3.592097.0750151v.9588881c0 .4131265.25494.6196897.764819.6196897h3.421287v1.1621899c-1.086892.093497-2.349692.1406079-3.7884.1413327-.537704.0123738-1.070514-.0900218-1.550032-.2978859z" fill="#f6921e"/><path d="m137.55976 31.2575047h-2.55976v-1.2575047h7v1.2575047h-2.572874v5.7424953h-1.867366z" fill="#f6921e"/><path d="m54.3727731 8.96573691-.0910016-.45316804-.3640064-.36157025c-6.1080283-5.88756887-15.773613-8.15099862-24.0244259-8.15099862l-.0461075 7.69783058c-1.6865633-.0457989-3.2360174-.0457989-4.6944699 0l-.0461075-7.69783058c-8.2508129 0-17.91639763 2.26342975-24.02442592 8.15099862l-.36400645.36157025-.09100162.45316804c-2.27989375 8.91873279 1.04833859 28.48329889 20.15018389 40.03185259-19.83349827-18.6112259-17.46745633-35.6387741-16.87048574-38.6735537 5.47101699-4.98123277 14.13194384-6.52031679 17.73318104-6.74931128l-.0448941 4.34727961c-4.7866849.54356061-9.8475879 1.85606061-13.85893905 4.75464877-.90758943 6.6143251 1.86856646 14.3121556 5.88719775 20.8782713 3.1911232 5.3030303 7.2024743 9.5092976 11.8071559 13.5853995l2.0663433-22.46677-5.9454387 13.7722108c-3.6461313-4.2568871-10.1654869-13.2684229-10.3935976-23.7744491 4.923794-2.4900137 10.4845992-3.2601584 15.9556162-3.3059573 5.5620186-.0445936 11.7161544.7701447 16.73095 3.3059573-.2281108 10.5060262-6.7474663 19.517562-10.3935976 23.7744491l-5.9454388-13.7722108 2.0675567 22.4655648c4.6046816-4.076102 8.6148194-8.2871901 11.807156-13.5853995 4.0113511-6.5661157 6.7947871-14.2639463 5.8811309-20.8758609-3.966457-2.9009986-9.0722542-4.07489667-13.8601524-4.66305094l-.0448941-4.43767217c3.6012372.22658402 12.262164 1.76566804 17.733181 6.74931131.5933306 3.0347796 2.9630126 20.0611226-16.8656323 38.6735537 19.100632-11.5509642 22.4288643-31.1131198 20.1489705-40.03426309z" fill="url(#a)"/></g></svg>

<?xml version="1.0" encoding="UTF-8"?>
<svg width="250px" height="75px" viewBox="0 0 162 49" version="1.1" xmlns="http://www.w3.org/2000/svg" xmlns:xlink="http://www.w3.org/1999/xlink">
    <!-- Generator: Sketch 53.2 (72643) - https://sketchapp.com -->
    <title>wasabi-wallet-logo</title>
    <desc>Created with Sketch.</desc>
    <defs>
        <linearGradient x1="49.998891%" y1="85.2149744%" x2="49.998891%" y2="-21.4285714%" id="linearGradient-1">
            <stop stop-color="#8BC53F" offset="0%"></stop>
            <stop stop-color="#91BF3E" offset="17%"></stop>
            <stop stop-color="#A2AF3C" offset="40%"></stop>
            <stop stop-color="#BD9538" offset="66%"></stop>
            <stop stop-color="#E47133" offset="95%"></stop>
            <stop stop-color="#E76E33" offset="97%"></stop>
        </linearGradient>
    </defs>
    <g id="Page-1" stroke="none" stroke-width="1" fill="none" fill-rule="evenodd">
        <g id="wasabi-wallet-logo" fill-rule="nonzero">
            <polygon id="Path" fill="#74B64A" points="70 11 73.3580247 11 75.9691358 20.8761526 79.0185185 11 82 11 85.0283951 20.8761526 87.6395062 11 91 11 87.1160494 25 83.8024691 25 80.5111111 15.1250317 77.1975309 25 73.8839506 25"></polygon>
            <path d="M97.9868648,11 L102.010716,11 L107,24.9952643 L103.685102,24.9952643 L102.674905,22.0685835 L97.2561355,22.0685835 L96.2665054,25 L93,25 L97.9868648,11 Z M101.922399,19.5491755 L99.9649153,13.4021987 L98.0086415,19.5491755 L101.922399,19.5491755 Z" id="Shape" fill="#74B64A"></path>
            <path d="M113.626981,24.866012 C112.810875,24.7994322 111.999669,24.6877758 111.197587,24.5316245 L111.197587,22.354028 C112.507347,22.4658788 114.164223,22.5214159 116.168213,22.5206391 C117.067068,22.5206391 117.744316,22.4184976 118.199957,22.2142144 C118.655597,22.0099312 118.883832,21.6468043 118.88466,21.1248336 L118.88466,20.6226698 C118.88466,20.2141034 118.741341,19.900688 118.454701,19.6824234 C118.168062,19.4641589 117.759228,19.3558034 117.228199,19.3573569 L115.836424,19.3573569 C114.217657,19.3573569 113.006481,19.0594763 112.202897,18.463715 C111.399312,17.8679538 110.998348,16.8939192 111.000005,15.5416112 L111.000005,14.8716711 C111.000005,12.2913338 112.759607,11.0007767 116.27881,11 C117.135043,11.0017261 117.990501,11.0484037 118.841167,11.1398136 C119.724282,11.2330226 120.519168,11.3417665 121.225825,11.4660453 L121.225825,13.6436418 C119.208579,13.5317909 117.684668,13.4758655 116.654092,13.4758655 C115.815713,13.4758655 115.182373,13.584221 114.75407,13.8009321 C114.325768,14.0176431 114.112445,14.4180537 114.114102,15.0021638 L114.114102,15.3738349 C114.114102,15.8453174 114.272334,16.1898025 114.588797,16.4072903 C114.90526,16.6247781 115.387411,16.7331336 116.035249,16.7323569 L117.650702,16.7323569 C119.063189,16.7323569 120.140158,17.0582002 120.881609,17.7098868 C121.623061,18.3615735 121.995858,19.2159898 122,20.2731358 L122,21.0549268 C122,22.0965379 121.771351,22.9059032 121.314054,23.4830226 C120.836594,24.0733298 120.159058,24.4936844 119.392907,24.6749334 C118.564469,24.8916445 117.540934,25 116.322303,25 C115.483095,24.9976698 114.584655,24.9530071 113.626981,24.866012 Z" id="Path" fill="#74B64A"></path>
            <path d="M129.986434,11 L134.011147,11 L139,24.9952643 L135.685388,24.9952643 L134.674069,22.0685835 L129.255768,22.0685835 L128.266223,25 L125,25 L129.986434,11 Z M133.921628,19.5491755 L131.965523,13.4021987 L130.008209,19.5491755 L133.921628,19.5491755 Z" id="Shape" fill="#74B64A"></path>
            <path d="M143,11 L149.639144,11 C152.847701,11 154.451979,12.2237072 154.451979,14.6711216 C154.451979,15.5032425 154.246631,16.1810184 153.835936,16.7044493 C153.415919,17.2341197 152.798255,17.6015565 152.102032,17.7359161 C152.900269,17.8877485 153.624326,18.2726628 154.167059,18.8336999 C154.721497,19.4013421 154.999144,20.170304 155,21.1405853 C155,22.5285062 154.577754,23.5185248 153.733262,24.1106412 C152.88877,24.7027576 151.622888,24.9992105 149.935615,25 L143.005134,25 L143,11 Z M149.660963,16.7695821 C150.101006,16.789888 150.526801,16.6226927 150.816043,16.316021 C151.09754,16.0128574 151.238289,15.6094287 151.238289,15.1057351 C151.238289,14.5530931 151.08984,14.1492697 150.792941,13.8942649 C150.468888,13.6334018 150.048188,13.498067 149.61861,13.5164947 L146.376684,13.5164947 L146.376684,16.7695821 L149.660963,16.7695821 Z M149.844492,22.4835053 C151.136471,22.4835053 151.78246,21.8716517 151.78246,20.6479445 C151.78246,20.1181977 151.604064,19.6989793 151.247273,19.3902893 C150.863594,19.0720338 150.359924,18.9053551 149.844492,18.92607 L146.379251,18.92607 L146.379251,22.4787684 L149.844492,22.4835053 Z" id="Shape" fill="#74B64A"></path>
            <polygon id="Path" fill="#74B64A" points="159 11 162 11 162 25 159 25"></polygon>
            <polygon id="Path" fill="#F6921E" points="91 30 92.759044 30 94.1261271 34.935 95.7238457 30 97.2869093 30 98.8738729 34.935 100.240956 30 102 30 99.9684954 37 98.2297664 37 96.5053775 32.065 94.7702336 37 93.0350896 37"></polygon>
            <path d="M105.494253,30 L107.505747,30 L110,37 L108.347222,37 L107.840996,35.5354687 L105.128831,35.5354687 L104.63378,37 L103,37 L105.494253,30 Z M107.461047,34.2732812 L106.483238,31.2009375 L105.50431,34.2732812 L107.461047,34.2732812 Z" id="Shape" fill="#F6921E"></path>
            <path d="M113.479232,36.6125704 C113.158972,36.3542839 112.999229,35.9318324 113.000003,35.3452158 L113,30 L114.651197,30 L114.651197,35.1175735 C114.651197,35.5283511 114.896807,35.733375 115.388027,35.7326454 L118,35.7326454 L118,37 L114.951731,37 C114.290325,37 113.799492,36.8708568 113.479232,36.6125704 Z" id="Path" fill="#F6921E"></path>
            <path d="M120.48039,36.6125704 C120.16013,36.3542839 120,35.9318324 120,35.3452158 L120,30 L121.652356,30 L121.652356,35.1175735 C121.652356,35.5283511 121.897579,35.733375 122.388025,35.7326454 L125,35.7326454 L125,37 L121.952889,37 C121.291483,37 120.799489,36.8708568 120.48039,36.6125704 Z" id="Path" fill="#F6921E"></path>
            <path d="M128.661568,36.7011121 C128.220523,36.5010719 128,36.0908446 128,35.4704302 L128,31.5892161 C128,31.0253348 128.202252,30.6194562 128.606756,30.3715803 C129.036155,30.118018 129.549323,29.9881248 130.071383,30.0008537 C131.321436,30.0008537 132.629276,30.0414416 133.994901,30.1226173 L133.994901,31.2880687 L130.61058,31.2880687 C130.079456,31.2880687 129.813894,31.4790491 129.813894,31.8610098 L129.813894,32.8666465 L133.405991,32.9416616 L133.405991,34.0418825 L129.813894,34.1168976 L129.813894,35.0757857 C129.813894,35.4889122 130.068834,35.6954754 130.578713,35.6954754 L134,35.6954754 L134,36.8576653 C132.913108,36.9511623 131.650308,36.9982732 130.2116,36.998998 C129.673896,37.0113718 129.141086,36.9089762 128.661568,36.7011121 L128.661568,36.7011121 Z" id="Path" fill="#F6921E"></path>
            <polygon id="Path" fill="#F6921E" points="137.55976 31.2575047 135 31.2575047 135 30 142 30 142 31.2575047 139.427126 31.2575047 139.427126 37 137.55976 37"></polygon>
            <path d="M54.3727731,8.96573691 L54.2817715,8.51256887 L53.9177651,8.15099862 C47.8097368,2.26342975 38.1441521,0 29.8933392,0 L29.8472317,7.69783058 C28.1606684,7.65203168 26.6112143,7.65203168 25.1527618,7.69783058 L25.1066543,0 C16.8558414,0 7.19025667,2.26342975 1.08222838,8.15099862 L0.718221927,8.51256887 L0.627220314,8.96573691 C-1.65267344,17.8844697 1.6755589,37.4490358 20.7774042,48.9975895 C0.943905928,30.3863636 3.30994787,13.3588154 3.90691846,10.3240358 C9.37793545,5.34280303 18.0388623,3.80371901 21.6400995,3.57472452 L21.5952054,7.92200413 C16.8085205,8.46556474 11.7476175,9.77806474 7.73626635,12.6766529 C6.82867692,19.290978 9.60483281,26.9888085 13.6234641,33.5549242 C16.8145873,38.8579545 20.8259384,43.0642218 25.43062,47.1403237 L27.4969633,24.6735537 L27.4969633,24.6735537 L21.5515246,38.4457645 C17.9053933,34.1888774 11.3860377,25.1773416 11.157927,14.6713154 C16.081721,12.1813017 21.6425262,11.411157 27.1135432,11.3653581 C32.6755618,11.3207645 38.8296976,12.1355028 43.8444932,14.6713154 C43.6163824,25.1773416 37.0970269,34.1888774 33.4508956,38.4457645 L27.5054568,24.6735537 L27.5054568,24.6735537 L29.5730135,47.1391185 C34.1776951,43.0630165 38.1878329,38.8519284 41.3801695,33.553719 C45.3915206,26.9876033 48.1749566,19.2897727 47.2613004,12.6778581 C43.2948434,9.7768595 38.1890462,8.60296143 33.401148,8.01480716 L33.3562539,3.57713499 C36.9574911,3.80371901 45.6184179,5.34280303 51.0894349,10.3264463 C51.6827655,13.3612259 54.0524475,30.3875689 34.2238026,49 C53.3244346,37.4490358 56.6526669,17.8868802 54.3727731,8.96573691 Z" id="Path" fill="url(#linearGradient-1)"></path>
        </g>
    </g>
</svg>
